public/assets/icons/docker.svg

<svg width="48" height="48" viewBox="0 0 256 256" fill="none"
  xmlns="http://www.w3.org/2000/svg"
  xmlns:xlink="http://www.w3.org/1999/xlink" version="1.1">

  <g transform="translate(0, 0)">
    <svg xmlns="http://www.w3.org/2000/svg" width="256" height="256" fill="none" viewBox="0 0 256 256">
      <rect width="256" height="256" fill="#2396ED" rx="60"/>
      <path fill="#fff" d="M141.187 122.123H161.904V103.379H141.187V122.123ZM116.525 122.123H137.241V103.379H116.525V122.123ZM92.3554 122.123H113.072V103.379H92.3554V122.123ZM68.1859 122.123H88.4093V103.379H68.1859V122.123ZM43.5233 122.123H64.2399V103.379H43.5233V122.123ZM68.1859 99.4333H88.4093V80.6896H68.1859V99.4333ZM92.3554 99.4333H113.072V80.6896H92.3554V99.4333ZM116.525 99.4333H137.241V80.6896H116.525V99.4333ZM116.525 76.7436H137.241V58H116.525V76.7436ZM228 113.738C228 113.738 219.121 105.352 200.871 108.312C198.898 94.0075 183.607 85.6222 183.607 85.6222C183.607 85.6222 169.303 102.886 179.661 122.123C176.702 123.603 171.769 125.576 164.37 125.576H28.7257C26.2594 134.948 26.2594 197.097 94.3284 197.097C143.16 197.097 179.661 174.408 196.925 132.974C222.574 134.948 228 113.738 228 113.738Z"/>
    </svg>
  </g>

</svg>

<svg xmlns="http://www.w3.org/2000/svg" width="48" height="48" fill="none" viewBox="0 0 256 256"><svg xmlns="http://www.w3.org/2000/svg" width="256" height="256" viewBox="0 0 256 256"><rect width="256" height="256" fill="#2396ED" rx="60"/><path fill="#fff" d="M141.187 122.123h20.717v-18.744h-20.717zm-24.662 0h20.716v-18.744h-20.716zm-24.17 0h20.717v-18.744H92.355zm-24.17 0H88.41v-18.744H68.186zm-24.662 0H64.24v-18.744H43.523zm24.663-22.69h20.223V80.69H68.186zm24.17 0h20.716V80.69H92.355zm24.169 0h20.716V80.69h-20.716zm0-22.69h20.716V58h-20.716zM228 113.739s-8.879-8.386-27.129-5.426c-1.973-14.305-17.264-22.69-17.264-22.69s-14.304 17.264-3.946 36.501c-2.959 1.48-7.892 3.453-15.291 3.453H28.726c-2.467 9.372-2.467 71.521 65.602 71.521 48.832 0 85.333-22.689 102.597-64.123C222.574 134.948 228 113.738 228 113.738"/></svg></svg>
